Numix-Circle/48x48/apps/notifyosdconf.svg

<svg xmlns="http://www.w3.org/2000/svg" xmlns:xlink="http://www.w3.org/1999/xlink" width="48" viewBox="0 0 13.546667 13.546667" height="48">
 <defs>
  <linearGradient id="0">
   <stop stop-color="#198ba6"/>
   <stop offset="1" stop-color="#42c9e7"/>
  </linearGradient>
  <clipPath>
   <path d="m 489.217,197.275 c -2.603,0 -3.953,-1.367 -3.953,-3.971 l 0,0 0,-1.034 c 0,-2.604 1.35,-3.971 3.953,-3.971 l 0,0 1.035,0 c 2.62,0 3.97,1.367 3.97,3.971 l 0,0 0,1.034 c 0,2.604 -1.35,3.971 -3.97,3.971 l 0,0 -1.035,0 z"/>
  </clipPath>
  <linearGradient id="1">
   <stop stop-color="#620000"/>
   <stop offset="1" stop-color="#dd0f0f"/>
  </linearGradient>
  <clipPath>
   <rect y="223" x="307" height="42" width="42" transform="matrix(0,1,-1,0,0,0)" fill="url(#2)" color="#bebebe" rx="9"/>
  </clipPath>
  <linearGradient xlink:href="#1" id="2" gradientUnits="userSpaceOnUse" gradientTransform="matrix(0.175,0,0,0.175,302.79999,215.99997)" y1="280" x2="0" y2="40"/>
  <clipPath>
   <rect y="85" x="433" height="22" width="22" fill="url(#3)" color="#bebebe" rx="4"/>
  </clipPath>
  <linearGradient xlink:href="#1" id="3" gradientUnits="userSpaceOnUse" gradientTransform="matrix(0.0875,0,0,0.0875,430.9,81.499996)" y1="291.43" x2="0" y2="40"/>
  <clipPath>
   <rect width="30" height="30" x="433" y="37" fill="url(#4)" color="#bebebe" rx="6"/>
  </clipPath>
  <linearGradient xlink:href="#1" id="4" gradientUnits="userSpaceOnUse" gradientTransform="matrix(0.11931818,0,0,0.11931818,430.13636,32.227267)" y1="291.43" x2="0" y2="40"/>
  <clipPath>
   <rect width="16" height="16" x="304" y="212" transform="matrix(0,1,-1,0,0,0)" fill="url(#5)" color="#bebebe" rx="3"/>
  </clipPath>
  <linearGradient xlink:href="#1" id="5" gradientUnits="userSpaceOnUse" gradientTransform="matrix(0.06666667,0,0,0.06666667,302.4,209.33333)" y1="280" x2="0" y2="40"/>
  <clipPath>
   <rect y="46" x="34" height="220" width="220" fill="url(#6)" color="#bebebe" rx="50"/>
  </clipPath>
  <linearGradient xlink:href="#1" id="6" gradientUnits="userSpaceOnUse" gradientTransform="translate(0,-4)" y1="280" x2="0" y2="40"/>
  <clipPath>
   <rect y="142" x="290" height="60" width="60" fill="url(#7)" color="#bebebe" rx="12.5"/>
  </clipPath>
  <linearGradient xlink:href="#1" id="7" gradientUnits="userSpaceOnUse" y1="204" x2="0" y2="140"/>
  <clipPath>
   <rect width="88" height="88" x="292" y="32" fill="url(#8)" color="#bebebe" rx="18"/>
  </clipPath>
  <linearGradient xlink:href="#1" id="8" gradientUnits="userSpaceOnUse" y1="124" x2="0" y2="28"/>
  <clipPath>
   <rect y="101" x="417" height="22" width="22" fill="url(#9)" color="#bebebe" rx="5"/>
  </clipPath>
  <linearGradient xlink:href="#1" id="9" gradientUnits="userSpaceOnUse" gradientTransform="matrix(0.0875,0,0,0.0875,414.9,97.5)" y1="302.86" x2="0" y2="28.571"/>
  <clipPath>
   <rect width="30" height="30" x="417" y="53" fill="url(#A)" color="#bebebe" rx="7"/>
  </clipPath>
  <linearGradient xlink:href="#1" id="A" gradientUnits="userSpaceOnUse" gradientTransform="matrix(0.11931818,0,0,0.11931818,414.13636,48.22727)" y1="299.81" x2="0" y2="31.619"/>
  <use id="B" opacity="0.2" fill="#ffffff" xlink:href="#d"/>
  <clipPath>
   <use xlink:href="#B" transform="matrix(8,0,0,8,-2141.5757,-54.424243)"/>
  </clipPath>
  <clipPath>
   <use xlink:href="#B"/>
  </clipPath>
  <use id="C" fill="none" xlink:href="#d"/>
  <clipPath>
   <use xlink:href="#C"/>
  </clipPath>
  <clipPath>
   <use transform="matrix(8,0,0,8,-2141.5757,-54.424243)" xlink:href="#C"/>
  </clipPath>
  <use id="D" fill="none" xlink:href="#d"/>
  <clipPath>
   <use xlink:href="#D"/>
  </clipPath>
  <clipPath>
   <use transform="matrix(8,0,0,8,-2141.5757,-54.424243)" xlink:href="#D"/>
  </clipPath>
  <use id="E" fill="none" xlink:href="#d"/>
  <clipPath>
   <use xlink:href="#E"/>
  </clipPath>
  <clipPath>
   <use transform="matrix(8,0,0,8,-2141.5757,-54.424243)" xlink:href="#E"/>
  </clipPath>
  <use id="F" fill="none" xlink:href="#d"/>
  <clipPath>
   <use xlink:href="#F"/>
  </clipPath>
  <clipPath>
   <use transform="matrix(8,0,0,8,-2141.5757,-54.424243)" xlink:href="#F"/>
  </clipPath>
  <use id="G" fill="none" xlink:href="#d"/>
  <clipPath>
   <use xlink:href="#G"/>
  </clipPath>
  <clipPath>
   <use transform="matrix(8,0,0,8,-2141.5757,-54.424243)" xlink:href="#G"/>
  </clipPath>
  <use id="H" fill="none" xlink:href="#d"/>
  <clipPath>
   <use xlink:href="#H"/>
  </clipPath>
  <clipPath>
   <use transform="matrix(8,0,0,8,-2141.5757,-54.424243)" xlink:href="#H"/>
  </clipPath>
  <use id="I" fill="none" xlink:href="#d"/>
  <clipPath>
   <use xlink:href="#I"/>
  </clipPath>
  <clipPath>
   <rect y="223" x="307" height="42" width="42" transform="matrix(0,1,-1,0,0,0)" fill="url(#J)" color="#bebebe" rx="9"/>
  </clipPath>
  <linearGradient xlink:href="#1" id="J" gradientUnits="userSpaceOnUse" gradientTransform="matrix(0.175,0,0,0.175,302.79999,215.99997)" y1="280" x2="0" y2="40"/>
  <clipPath>
   <rect y="85" x="433" height="22" width="22" fill="url(#K)" color="#bebebe" rx="4"/>
  </clipPath>
  <linearGradient xlink:href="#1" id="K" gradientUnits="userSpaceOnUse" gradientTransform="matrix(0.0875,0,0,0.0875,430.9,81.499996)" y1="291.43" x2="0" y2="40"/>
  <clipPath>
   <rect width="30" height="30" x="433" y="37" fill="url(#L)" color="#bebebe" rx="6"/>
  </clipPath>
  <linearGradient xlink:href="#1" id="L" gradientUnits="userSpaceOnUse" gradientTransform="matrix(0.11931818,0,0,0.11931818,430.13636,32.227267)" y1="291.43" x2="0" y2="40"/>
  <clipPath>
   <rect width="16" height="16" x="304" y="212" transform="matrix(0,1,-1,0,0,0)" fill="url(#M)" color="#bebebe" rx="3"/>
  </clipPath>
  <linearGradient xlink:href="#1" id="M" gradientUnits="userSpaceOnUse" gradientTransform="matrix(0.06666667,0,0,0.06666667,302.4,209.33333)" y1="280" x2="0" y2="40"/>
  <clipPath>
   <rect y="46" x="34" height="220" width="220" fill="url(#N)" color="#bebebe" rx="50"/>
  </clipPath>
  <linearGradient xlink:href="#1" id="N" gradientUnits="userSpaceOnUse" gradientTransform="translate(0,-4)" y1="280" x2="0" y2="40"/>
  <clipPath>
   <rect y="142" x="290" height="60" width="60" fill="url(#O)" color="#bebebe" rx="12.5"/>
  </clipPath>
  <linearGradient xlink:href="#1" id="O" gradientUnits="userSpaceOnUse" y1="204" x2="0" y2="140"/>
  <clipPath>
   <rect width="88" height="88" x="292" y="32" fill="url(#P)" color="#bebebe" rx="18"/>
  </clipPath>
  <linearGradient xlink:href="#1" id="P" gradientUnits="userSpaceOnUse" y1="124" x2="0" y2="28"/>
  <clipPath>
   <rect y="101" x="417" height="22" width="22" fill="url(#Q)" color="#bebebe" rx="5"/>
  </clipPath>
  <linearGradient xlink:href="#1" id="Q" gradientUnits="userSpaceOnUse" gradientTransform="matrix(0.0875,0,0,0.0875,414.9,97.5)" y1="302.86" x2="0" y2="28.571"/>
  <clipPath>
   <rect width="30" height="30" x="417" y="53" fill="url(#R)" color="#bebebe" rx="7"/>
  </clipPath>
  <linearGradient xlink:href="#1" id="R" gradientUnits="userSpaceOnUse" gradientTransform="matrix(0.11931818,0,0,0.11931818,414.13636,48.22727)" y1="299.81" x2="0" y2="31.619"/>
  <clipPath>
   <use transform="matrix(8,0,0,8,-2141.5757,-54.424243)" xlink:href="#I"/>
  </clipPath>
  <use id="S" fill="none" xlink:href="#d"/>
  <clipPath>
   <use xlink:href="#S"/>
  </clipPath>
  <clipPath>
   <use transform="matrix(8,0,0,8,-2141.5757,-54.424243)" xlink:href="#S"/>
  </clipPath>
  <use id="T" fill="none" xlink:href="#d"/>
  <clipPath>
   <use xlink:href="#T"/>
  </clipPath>
  <clipPath>
   <use transform="matrix(8,0,0,8,-2141.5757,-54.424243)" xlink:href="#T"/>
  </clipPath>
  <use id="U" fill="none" xlink:href="#d"/>
  <clipPath>
   <use xlink:href="#U"/>
  </clipPath>
  <clipPath>
   <use transform="matrix(8,0,0,8,-2141.5757,-54.424243)" xlink:href="#U"/>
  </clipPath>
  <use id="V" fill="none" xlink:href="#d"/>
  <clipPath>
   <use xlink:href="#V"/>
  </clipPath>
  <clipPath>
   <use transform="matrix(8,0,0,8,-2141.5757,-54.424243)" xlink:href="#V"/>
  </clipPath>
  <use id="W" fill="none" xlink:href="#d"/>
  <clipPath>
   <use xlink:href="#W"/>
  </clipPath>
  <clipPath>
   <use transform="matrix(8,0,0,8,-2141.5757,-54.424243)" xlink:href="#W"/>
  </clipPath>
  <use id="X" fill="none" xlink:href="#d"/>
  <clipPath>
   <use xlink:href="#X"/>
  </clipPath>
  <clipPath>
   <use transform="matrix(8,0,0,8,-2141.5757,-54.424243)" xlink:href="#X"/>
  </clipPath>
  <clipPath>
   <path d="m 296,26 a 10,10 0 1 1 -20,0 10,10 0 1 1 20,0 z"/>
  </clipPath>
  <linearGradient gradientUnits="userSpaceOnUse" x2="0" y2="40" y1="280" xlink:href="#Z" id="Y" gradientTransform="matrix(.175 0 0 .175 302.79999 215.99997)"/>
  <linearGradient id="Z">
   <stop stop-color="#151515"/>
   <stop offset="1" stop-color="#222"/>
  </linearGradient>
  <linearGradient gradientUnits="userSpaceOnUse" x2="0" y2="90" y1="230" xlink:href="#Z" id="a" gradientTransform="matrix(.375 0 0 .375 298 16)"/>
  <linearGradient gradientUnits="userSpaceOnUse" x2="0" y2="90" y1="230" xlink:href="#Z" id="b" gradientTransform="matrix(.25 0 0 .25 299.99999 131.99999)"/>
  <linearGradient gradientUnits="userSpaceOnUse" x2="264" x1="265" y2="276" y1="40" xlink:href="#Z" gradientTransform="matrix(-1 0 0 -1 289 315)"/>
  <clipPath>
   <rect height="20" rx="4" y="78" x="434" width="20" color="#bebebe"/>
  </clipPath>
  <clipPath>
   <rect height="22" rx="4" y="77" x="433" width="22" color="#bebebe"/>
  </clipPath>
  <clipPath>
   <rect height="22" rx="5" y="77" x="433" width="22" color="#bebebe"/>
  </clipPath>
  <clipPath>
   <rect height="30" rx="6" y="29" x="433" width="30" color="#bebebe"/>
  </clipPath>
  <clipPath>
   <rect transform="matrix(0 -1 1 0 0 0)" height="60" rx="12.5" y="142" x="306" width="60" fill="url(#b)" color="#bebebe"/>
  </clipPath>
  <clipPath>
   <rect height="90" rx="18.75" y="31" x="307" width="90" fill="url(#a)" color="#bebebe"/>
  </clipPath>
  <clipPath>
   <rect height="30" rx="4" y="29" x="433" width="30" opacity="0.2" fill="#6d6d6d" color="#bebebe"/>
  </clipPath>
  <clipPath>
   <rect height="22" rx="3" y="77" x="433" width="22" opacity="0.2" fill="#6d6d6d" color="#bebebe"/>
  </clipPath>
  <clipPath>
   <path d="m 144,70 c -49.705627,0 -90,40.29437 -90,90 0,49.70563 40.294373,90 90,90 49.70563,0 90,-40.29437 90,-90 0,-49.70563 -40.29437,-90 -90,-90 z m 0,32.1875 c 32.03251,0 58,25.96748 58,58 0,32.03252 -25.96749,58 -58,58 -32.03251,0 -58,-25.96748 -58,-58 0,-32.03252 25.96749,-58 58,-58 z"/>
  </clipPath>
  <clipPath>
   <path d="m 152,204 a 8,8 0 1 1 -16,0 8,8 0 1 1 16,0 z"/>
  </clipPath>
  <clipPath>
   <rect height="16" rx="3" y="116" x="432" width="16" color="#bebebe"/>
  </clipPath>
  <clipPath>
   <path d="m 145,215 c 33.13708,0 60,-26.86292 60,-60 0,-33.13708 -26.86292,-60 -60,-60 -33.13708,0 -60,26.86292 -60,60 0,12.50698 3.8285,24.10633 10.375,33.71875 L 89,211 111.28125,204.625 C 120.89367,211.1715 132.49302,215 145,215 z"/>
  </clipPath>
  <clipPath>
   <path d="m 98.03125,23.191212 c -41.492132,1.05238 -74.84375,35.06824 -74.84375,76.812498 0,42.40687 34.405632,76.8125 76.8125,76.8125 42.40687,0 76.8125,-34.40563 76.8125,-76.8125 0,-42.406866 -34.40563,-76.812498 -76.8125,-76.812498 -0.662607,0 -1.310145,-0.0167 -1.96875,0 z M 100,50.659962 c 27.24464,0 49.34375,22.099114 49.34375,49.343748 -1e-5,27.24464 -22.09911,49.34375 -49.34375,49.34375 -27.244636,-1e-5 -49.34375,-22.09911 -49.34375,-49.34375 0,-27.244634 22.099114,-49.343748 49.34375,-49.343748 z"/>
  </clipPath>
  <clipPath>
   <rect height="16" rx="2" y="116" x="432" width="16" opacity="0.2" fill="#6d6d6d" color="#bebebe"/>
  </clipPath>
  <clipPath>
   <rect height="240" rx="50" y="36" x="24" width="240" fill="#986767" color="#bebebe"/>
  </clipPath>
  <clipPath>
   <rect transform="rotate(90)" height="42" rx="9" y="223" x="307" width="42" fill="url(#Y)" color="#bebebe"/>
  </clipPath>
  <linearGradient xlink:href="#0" id="c" gradientUnits="userSpaceOnUse" gradientTransform="matrix(1.10525,0,0,1.10525,-134.27874,-295.76183)" y1="279.1" x2="0" y2="268.33"/>
  <path id="d" d="m 296,26 a 10,10 0 1 1 -20,0 10,10 0 1 1 20,0 z" color="#000000"/>
 </defs>
 <rect height="12.982" rx="6.491" y="0.282" x="0.282" width="12.982" opacity="0.5" fill="#ffffff" fill-rule="evenodd"/>
 <rect height="11.853" rx="5.926" y="0.847" x="0.847" width="11.853" fill="url(#c)" fill-rule="evenodd"/>
 <path d="M 13.4375 13 C 12.628906 13 12 13.6289 12 14.4375 L 12 30.3125 C 12 31.1211 12.628906 31.75 13.4375 31.75 L 18 31.75 L 18 37 L 24 31.75 L 34.5625 31.75 C 35.371094 31.75 36 31.1211 36 30.3125 L 36 14.4375 C 36 13.6289 35.339844 13 34.53125 13 L 13.4375 13 z M 23.25 14 L 24.75 14 L 24.75 25.09375 C 25.758354 25.287 26.5 25.830886 26.5 26.5 C 26.5 27.169115 25.758354 27.713 24.75 27.90625 L 24.75 30 L 23.25 30 L 23.25 27.90625 C 22.241646 27.713 21.5 27.169115 21.5 26.5 C 21.5 25.830886 22.241646 25.287 23.25 25.09375 L 23.25 14 z M 17.75 15 L 19.25 15 L 19.25 18.09375 C 20.258354 18.287 21 18.830886 21 19.5 C 21 20.169115 20.258354 20.713 19.25 20.90625 L 19.25 29 L 17.75 29 L 17.75 20.90625 C 16.741646 20.713 16 20.169115 16 19.5 C 16 18.830886 16.741646 18.287 17.75 18.09375 L 17.75 15 z M 28.75 15 L 30.25 15 L 30.25 18.09375 C 31.258354 18.287 32 18.830886 32 19.5 C 32 20.169115 31.258354 20.713 30.25 20.90625 L 30.25 29 L 28.75 29 L 28.75 20.90625 C 27.741646 20.713 27 20.169115 27 19.5 C 27 18.830886 27.741646 18.287 28.75 18.09375 L 28.75 15 z " transform="scale(0.28222223,0.28222223)" fill="#f9f9f9"/>
</svg>

<svg viewBox="0 0 48 48"><defs><linearGradient id="1" gradientUnits="userSpaceOnUse" y1="15" x2="0" y2="11" gradientTransform="matrix(15.333333,0,0,11.5,414.99999,-125.5)"><stop/><stop offset="1" stop-opacity="0"/></linearGradient><clipPath id="clipPath-768342221"><g transform="translate(0,-1004.3622)"><path d="m -24 13 c 0 1.105 -0.672 2 -1.5 2 -0.828 0 -1.5 -0.895 -1.5 -2 0 -1.105 0.672 -2 1.5 -2 0.828 0 1.5 0.895 1.5 2 z" transform="matrix(15.333333,0,0,11.5,414.99999,878.8622)" fill="#1890d0"/></g></clipPath><clipPath id="clipPath-781204503"><g transform="translate(0,-1004.3622)"><path d="m -24 13 c 0 1.105 -0.672 2 -1.5 2 -0.828 0 -1.5 -0.895 -1.5 -2 0 -1.105 0.672 -2 1.5 -2 0.828 0 1.5 0.895 1.5 2 z" transform="matrix(15.333333,0,0,11.5,414.99999,878.8622)" fill="#1890d0"/></g></clipPath></defs><g><g transform="translate(0,-1004.3622)"><path d="m 25 1006.36 c -12.703 0 -23 10.298 -23 23 0 6.367 2.601 12.12 6.781 16.281 4.085 3.712 9.514 5.969 15.469 5.969 12.703 0 23 -10.297 23 -23 0 -5.954 -2.256 -11.384 -5.969 -15.469 -4.165 -4.181 -9.914 -6.781 -16.281 -6.781 z m 16.281 6.781 c 3.854 4.113 6.219 9.637 6.219 15.719 0 12.703 -10.297 23 -23 23 -6.081 0 -11.606 -2.364 -15.719 -6.219 4.16 4.144 9.883 6.719 16.219 6.719 12.703 0 23 -10.297 23 -23 0 -6.335 -2.575 -12.06 -6.719 -16.219 z" opacity="0.05"/><path d="m 41.28 1013.14 c 3.712 4.085 5.969 9.514 5.969 15.469 0 12.703 -10.297 23 -23 23 -5.954 0 -11.384 -2.256 -15.469 -5.969 4.113 3.854 9.637 6.219 15.719 6.219 12.703 0 23 -10.297 23 -23 0 -6.081 -2.364 -11.606 -6.219 -15.719 z" opacity="0.1"/><path transform="matrix(15.333333,0,0,11.5,415.24999,879.11222)" d="m -24 13 a 1.5 2 0 1 1 -3 0 1.5 2 0 1 1 3 0 z" opacity="0.2"/></g></g><g><g transform="translate(0,-1004.3622)"><path d="m -24 13 c 0 1.105 -0.672 2 -1.5 2 -0.828 0 -1.5 -0.895 -1.5 -2 0 -1.105 0.672 -2 1.5 -2 0.828 0 1.5 0.895 1.5 2 z" transform="matrix(15.333333,0,0,11.5,414.99999,878.8622)" fill="#37b8d5"/></g></g><g><path d="m 47 24 c 0 12.703 -10.297 23 -23 23 -12.703 0 -23 -10.297 -23 -23 0 -12.703 10.297 -23 23 -23 12.703 0 23 10.297 23 23 z" opacity="0.15" fill="url(#1)"/></g><g><g clip-path="url(#clipPath-768342221)"><g transform="translate(0,1)"><g opacity="0.1"><!-- color: #37b8d5 --><g><path d="m 13.438 13 c -0.809 0 -1.438 0.629 -1.438 1.438 l 0 15.875 c 0 0.809 0.629 1.438 1.438 1.438 l 4.563 0 l 0 5.25 l 6 -5.25 l 10.563 0 c 0.809 0 1.441 -0.629 1.441 -1.438 l 0 -15.875 c 0 -0.809 -0.66 -1.438 -1.473 -1.438 m -11.281 1 l 1.5 0 l 0 11.09 c 1.012 0.191 1.75 0.738 1.75 1.406 c 0 0.668 -0.742 1.215 -1.75 1.406 l 0 2.094 l -1.5 0 l 0 -2.094 c -1.01 -0.191 -1.75 -0.738 -1.75 -1.406 c 0 -0.668 0.742 -1.215 1.75 -1.406 m -5.5 -10.09 l 1.5 0 l 0 3.094 c 1.012 0.191 1.75 0.738 1.75 1.406 c 0 0.668 -0.742 1.215 -1.75 1.406 l 0 8.094 l -1.5 0 l 0 -8.094 c -1.01 -0.191 -1.75 -0.738 -1.75 -1.406 c 0 -0.668 0.742 -1.215 1.75 -1.406 m 11 -3.094 l 1.5 0 l 0 3.094 c 1.012 0.191 1.75 0.738 1.75 1.406 c 0 0.668 -0.742 1.215 -1.75 1.406 l 0 8.094 l -1.5 0 l 0 -8.094 c -1.01 -0.191 -1.75 -0.738 -1.75 -1.406 c 0 -0.668 0.742 -1.215 1.75 -1.406 m 0 -3.094" fill="#000" stroke="none" fill-rule="nonzero" fill-opacity="1"/></g></g></g></g></g><g><g clip-path="url(#clipPath-781204503)"><!-- color: #37b8d5 --><g><path d="m 13.438 13 c -0.809 0 -1.438 0.629 -1.438 1.438 l 0 15.875 c 0 0.809 0.629 1.438 1.438 1.438 l 4.563 0 l 0 5.25 l 6 -5.25 l 10.563 0 c 0.809 0 1.441 -0.629 1.441 -1.438 l 0 -15.875 c 0 -0.809 -0.66 -1.438 -1.473 -1.438 m -11.281 1 l 1.5 0 l 0 11.09 c 1.012 0.191 1.75 0.738 1.75 1.406 c 0 0.668 -0.742 1.215 -1.75 1.406 l 0 2.094 l -1.5 0 l 0 -2.094 c -1.01 -0.191 -1.75 -0.738 -1.75 -1.406 c 0 -0.668 0.742 -1.215 1.75 -1.406 m -5.5 -10.09 l 1.5 0 l 0 3.094 c 1.012 0.191 1.75 0.738 1.75 1.406 c 0 0.668 -0.742 1.215 -1.75 1.406 l 0 8.094 l -1.5 0 l 0 -8.094 c -1.01 -0.191 -1.75 -0.738 -1.75 -1.406 c 0 -0.668 0.742 -1.215 1.75 -1.406 m 11 -3.094 l 1.5 0 l 0 3.094 c 1.012 0.191 1.75 0.738 1.75 1.406 c 0 0.668 -0.742 1.215 -1.75 1.406 l 0 8.094 l -1.5 0 l 0 -8.094 c -1.01 -0.191 -1.75 -0.738 -1.75 -1.406 c 0 -0.668 0.742 -1.215 1.75 -1.406 m 0 -3.094" fill="#f9f9f9" stroke="none" fill-rule="nonzero" fill-opacity="1"/></g></g></g><g><path d="m 40.03 7.531 c 3.712 4.084 5.969 9.514 5.969 15.469 0 12.703 -10.297 23 -23 23 c -5.954 0 -11.384 -2.256 -15.469 -5.969 4.178 4.291 10.01 6.969 16.469 6.969 c 12.703 0 23 -10.298 23 -23 0 -6.462 -2.677 -12.291 -6.969 -16.469 z" opacity="0.1"/></g></svg>
